icon-themes/colibre_svg/cmd/sc_deletemasterpage.svg

<svg viewBox="0 0 16 16" xmlns="http://www.w3.org/2000/svg"><path d="m1 2v11h5.7285156l1.5019532-1.519531-1.9472657-1.9980471c-.3889839-.3997414-.3758011-1.0404259.0292969-1.4238281l1.8808594-1.7832032c.182534-.1736362.4238752-.2719906.6757812-.2753906.2702129-.0030983.5301792.1032836.7207032.2949219l1.9160152 1.9277343 1.873047-1.9199218c.381866-.3915887 1.007476-.4037702 1.404297-.0273438l.216797.2070313v-4.4824219zm14 9.210938-.232422.257812.232422.236328z" fill="#fff"/><path d="m0 1v13h6.0292969c.03038-.202293.1049023-.400001.2597656-.556641l.4394531-.443359h-5.7285156v-11h14v4.4824219l1 .9511719v-6.4335938zm2 7v1h1v-1zm2 0v1h2.0410156c-.0738924-.3319271.0061018-.6902368.2714844-.9414062l.0625-.0585938zm-2 2v1h1v-1zm2 0v1h3.7617188l-.9746094-1zm12 .103516-1 1.107422v.49414l1 1.017578z" fill="#4d82b8"/><path d="m2 4v2h12v-2z" fill="#eac282"/><path d="m16 14.149904-2.605902-2.651537 2.50749-2.7777726-1.807553-1.7205859-2.580554 2.6470558-2.632865-2.6470558-1.880616 1.783872 2.632863 2.7031725-2.632863 2.660005 1.880616 1.852942 2.62981-2.77941 2.635919 2.77941z" fill="#e68497"/></svg>

<svg viewBox="0 0 16 16" xmlns="http://www.w3.org/2000/svg">
  <path
     style="fill:#ffffff"
     d="M 1 2 L 1 13 L 6.7285156 13 L 8.2304688 11.480469 L 6.2832031 9.4824219 C 5.8942192 9.0826805 5.907402 8.441996 6.3125 8.0585938 L 8.1933594 6.2753906 C 8.3758934 6.1017544 8.6172346 6.0034 8.8691406 6 C 9.1393535 5.9969017 9.3993198 6.1032836 9.5898438 6.2949219 L 11.505859 8.2226562 L 13.378906 6.3027344 C 13.760772 5.9111457 14.386382 5.8989642 14.783203 6.2753906 L 15 6.4824219 L 15 2 L 1 2 z M 15 11.210938 L 14.767578 11.46875 L 15 11.705078 L 15 11.210938 z "
     />
  <path
     style="fill:#4d82b8"
     d="m 0,1 v 13 h 6.0292969 c 0.03038,-0.202293 0.1049023,-0.400001 0.2597656,-0.556641 L 6.7285156,13 H 1 V 2 h 14 v 4.4824219 l 1,0.9511719 V 1 Z M 2,8 V 9 H 3 V 8 Z M 4,8 V 9 H 6.0410156 C 5.9671232,8.6680729 6.0471174,8.3097632 6.3125,8.0585938 L 6.375,8 Z m -2,2 v 1 h 1 v -1 z m 2,0 v 1 H 7.7617188 L 6.7871094,10 Z m 12,0.103516 -1,1.107422 v 0.49414 l 1,1.017578 z"
     />
  <path
     style="fill:#eac282"
     d="M 2,4 V 6 H 14 V 4 Z"
     />
  <path
     d="m16 14.149904-2.605902-2.651537 2.50749-2.7777726-1.807553-1.7205859-2.580554 2.6470558-2.632865-2.6470558-1.880616 1.783872 2.632863 2.7031725-2.632863 2.660005 1.880616 1.852942 2.62981-2.77941 2.635919 2.77941z"
     fill="#e68497"
     />
</svg>
